IMB-X-Files/The-Ambassadors-Assets/6616e2ee05d6a452da3920f2_dsc-logo.svg

<svg fill="none" height="53" viewBox="0 0 243 53" width="243" xmlns="http://www.w3.org/2000/svg" xmlns:xlink="http://www.w3.org/1999/xlink"><clipPath id="a"><path d="m60.75 6h121v40h-121z"/></clipPath><g clip-path="url(#a)" fill="#fff"><path d="m118.243 39.3533h6.579v-.0042h3.622v-14.5432h-7.244v7.2989h-2.957c-1.936.0008-3.794-.7674-5.164-2.1357s-2.141-3.2248-2.142-5.1611c.001-1.9366.772-3.7933 2.142-5.1618 1.37-1.3686 3.227-2.1369 5.164-2.1361v-7.2496c-8.044 0-14.563 6.5109-14.563 14.5454 0 8.0344 6.519 14.5474 14.563 14.5474z"/><path clip-rule="evenodd" d="m102.13 39.3491c-3.859.0016-7.561-1.5297-10.2914-4.2572-2.7305-2.7275-4.2658-6.4278-4.2683-10.2872.0028-3.8591 1.5382-7.5592 4.2686-10.2865 2.7305-2.7272 6.4323-4.2584 10.2911-4.2567v7.2496c-4.0342 0-7.3027 3.2643-7.3027 7.2947 0 4.0303 3.2685 7.2947 7.3027 7.2947z" fill-rule="evenodd"/><path d="m70.9513 10.2615h-6.5791v.0042h-3.6222v14.5443h7.2444v-7.3h2.9569c1.9365-.0008 3.7941.7675 5.1642 2.1361 1.3702 1.3685 2.1406 3.2252 2.142 5.1618-.0016 1.9364-.7722 3.7928-2.1423 5.1611s-3.2276 2.1365-5.1639 2.1357v7.2496c8.0439 0 14.5632-6.5109 14.5632-14.5454 0-8.0344-6.5193-14.5474-14.5632-14.5474zm65.1967 0h2.843c2.347 0 3.855 1.7366 3.855 4.1164s-1.508 4.1048-3.855 4.1048h-2.843zm2.785 7.3356c1.726 0 2.785-1.2875 2.785-3.2308s-1.059-3.2203-2.785-3.2203h-1.726v6.4501zm4.937-7.3356h1.163v1.2875h-1.163zm.058 2.299h1.036v5.9212h-1.036zm2.256 6.1289h1.059c.184.6894.702 1.0231 1.611 1.0231.863 0 1.647-.425 1.647-1.6442v-.7702c-.461.7471-1.151 1.0692-1.934 1.0692-1.427 0-2.59-1.2644-2.59-3.001 0-1.725 1.163-2.9548 2.59-2.9548.783 0 1.541.3672 1.934 1.0346v-.8856h1.035v5.4836c0 1.851-1.323 2.5173-2.716 2.5173-1.485.001-2.475-.7009-2.635-1.873zm2.6-1.1846c1.07 0 1.772-.8972 1.772-2.1385 0-1.2529-.702-2.0923-1.772-2.0923-1.059 0-1.749.8394-1.749 2.0923 0 1.2424.69 2.1385 1.749 2.1385zm4.04-7.2433h1.162v1.2875h-1.162zm.058 2.299h1.035v5.9212h-1.035zm2.818 4.5413v-3.6903h-.943v-.851h.678c.161 0 .265-.1028.265-.2529v-1.7009h1.024v1.9548h1.301v.851h-1.301v3.5299c0 .5057.137.6893.61.6893h.84v.851h-1.138c-.91.0011-1.335-.3893-1.335-1.3788zm3.073-.2182c0-1.3798 1.186-1.6904 2.152-1.8163l1.278-.1721c.473-.0693.564-.3327.564-.6097 0-.575-.391-1.0461-1.278-1.0461s-1.393.4145-1.484 1.1374h-1.035c.127-1.1846 1.081-1.9664 2.497-1.9664 1.576 0 2.324.7818 2.324 2.1154v2.874c0 .127.103.2298.242.2298h.369v.851h-.702c-.564 0-.875-.299-.875-.724v-.15c-.518.7701-1.336 1.023-2.072 1.023-1.207.0021-1.978-.6988-1.978-1.745zm2.245.9202c1.058 0 1.749-.7817 1.749-1.9422v-.4145c-.195.1028-.403.1375-.598.1721l-1.047.1605c-.899.1375-1.278.4596-1.278 1.0577.001.6097.461.9664 1.174.9664zm4.303-7.5423h1.036v8.2202h-1.036zm-29.599 14.7678c0-2.5645 1.531-4.2654 3.718-4.2654 1.911 0 3.107 1.1847 3.349 2.9548h-1.117c-.208-1.0808-.898-2.0461-2.232-2.0461-1.634 0-2.612 1.4375-2.612 3.3462s1.013 3.3567 2.612 3.3567c1.392 0 2.152-1 2.314-2.0818h1.116c-.334 2.001-1.634 2.9894-3.429 2.9894-2.222.0011-3.718-1.6893-3.718-4.2528zm8.137 1.8971v-3.7134h1.035v3.6442c0 1.0346.588 1.5645 1.439 1.5645.84 0 1.599-.7356 1.599-1.7943v-3.4144h1.036v5.9211h-1.036v-.9202c-.391.7125-1.128 1.0692-1.969 1.0692-1.23 0-2.104-.8163-2.104-2.3567z"/><path d="m150.27 23.2131h1.035v.9202c.368-.7251.933-.9895 1.623-.9895h.334v.9769h-.414c-.944 0-1.542.5866-1.542 1.8048v3.2077h-1.035v-5.9201z"/><path d="m154.137 23.2131h1.035v.9202c.369-.7251.933-.9895 1.624-.9895h.333v.9769h-.414c-.943 0-1.542.5866-1.542 1.8048v3.2077h-1.035v-5.9201z"/><path d="m157.427 26.1794c0-1.7817 1.094-3.1164 2.831-3.1164 1.474 0 2.762.8279 2.625 3.3798h-4.385c.069 1.0808.575 2.0125 1.76 2.0125.864 0 1.3-.4365 1.508-1.0807h1.047c-.287 1.15-1.173 1.9086-2.555 1.9086-1.738 0-2.832-1.3221-2.832-3.1048zm4.443-.5173c-.069-1.2067-.621-1.7702-1.611-1.7702-1.081 0-1.61.7818-1.737 1.7702zm1.99-2.4491h1.035v.8972c.392-.6548 1.14-1.0472 2.002-1.0472 1.289 0 2.187.8048 2.187 2.3798v3.6914h-1.036v-3.6337c0-1.0346-.587-1.575-1.461-1.575-.921 0-1.692.7471-1.692 1.7943v3.4144h-1.035zm6.144 2.9664c0-1.7702 1.117-3.1164 2.854-3.1164 1.359 0 2.348.8279 2.544 2.1846h-1.047c-.172-.8279-.748-1.3336-1.508-1.3336-1.231 0-1.772 1.0692-1.772 2.2539 0 1.1846.541 2.2643 1.772 2.2643.771 0 1.288-.4249 1.508-1.2423h1.035c-.218 1.2528-1.138 2.0923-2.543 2.0923-1.725.001-2.843-1.3326-2.843-3.1028zm7.193 4.0587c.369 0 .541-.0693.679-.425l.299-.7932-2.393-5.8058h1.115l1.784 4.4962 1.657-4.4962h1.082l-2.659 6.9558c-.288.7586-.725.9202-1.426.9202h-1.163v-.851h1.025zm-41.474 5.4437c0-2.5644 1.565-4.2654 3.786-4.2654 1.921 0 3.095 1.1847 3.337 2.9433h-1.116c-.161-1.0577-.943-2.0346-2.221-2.0346-1.669 0-2.682 1.4376-2.682 3.3463 0 1.9086 1.035 3.3567 2.669 3.3567 1.163 0 2.29-.6674 2.428-2.5519h-2.646v-.8846h3.66v4.1961h-.978v-1.2874c-.518.874-1.37 1.4375-2.67 1.4375-2.002-.0011-3.567-1.6904-3.567-4.2549zm8.643-1.8173h1.035v.9202c.369-.724.933-.9895 1.624-.9895h.333v.9769h-.414c-.943 0-1.542.5866-1.542 1.8048v3.2077h-1.035v-5.9201zm3.291 2.9663c0-1.7701 1.059-3.1164 2.854-3.1164 1.796 0 2.855 1.3452 2.855 3.1164s-1.059 3.1039-2.855 3.1039c-1.795 0-2.854-1.3337-2.854-3.1039zm2.853 2.2529c1.289 0 1.784-1.1154 1.784-2.2644 0-1.1616-.495-2.2539-1.784-2.2539-1.301 0-1.783 1.0923-1.783 2.2539 0 1.15.482 2.2644 1.783 2.2644zm3.775-1.5047v-3.7135h1.035v3.6442c0 1.0346.588 1.5645 1.439 1.5645.84 0 1.599-.7355 1.599-1.7943v-3.4144h1.036v5.9212h-1.036v-.9202c-.391.7124-1.128 1.0692-1.968 1.0692-1.23 0-2.105-.8164-2.105-2.3567zm6.41-3.7145h1.036v.8971c.21-.3315.503-.6023.85-.7858s.736-.2732 1.129-.2603c1.438 0 2.589 1.2644 2.589 3.1269s-1.151 3.0923-2.589 3.0923c-.828 0-1.554-.3568-1.979-1.0347v2.8394h-1.036zm2.762 5.2087c1.128 0 1.772-.9318 1.772-2.2298s-.645-2.2644-1.772-2.2644c-1.117 0-1.773.9654-1.773 2.2539 0 1.2886.656 2.2403 1.773 2.2403z"/></g></svg>

<svg width="243" height="53" viewBox="0 0 243 53" fill="none" xmlns="http://www.w3.org/2000/svg">
<g clip-path="url(#clip0_1449_1434)">
<path d="M118.243 39.3533H124.822V39.3491H128.444V24.8059H121.2V32.1048H118.243C116.307 32.1056 114.449 31.3374 113.079 29.9691C111.709 28.6008 110.938 26.7443 110.937 24.808C110.938 22.8714 111.709 21.0147 113.079 19.6462C114.449 18.2776 116.306 17.5093 118.243 17.5101V10.2605C110.199 10.2605 103.68 16.7714 103.68 24.8059C103.68 32.8403 110.199 39.3533 118.243 39.3533Z" fill="white"/>
<path fill-rule="evenodd" clip-rule="evenodd" d="M102.13 39.3491C98.271 39.3507 94.569 37.8194 91.8386 35.0919C89.1081 32.3644 87.5728 28.6641 87.5703 24.8047C87.5731 20.9456 89.1085 17.2455 91.8389 14.5182C94.5694 11.791 98.2712 10.2598 102.13 10.2615V17.5111C98.0958 17.5111 94.8273 20.7754 94.8273 24.8058C94.8273 28.8361 98.0958 32.1005 102.13 32.1005V39.3491Z" fill="white"/>
<path d="M70.9513 10.2615H64.3722V10.2657H60.75V24.81H67.9944V17.51H70.9513C72.8878 17.5092 74.7454 18.2775 76.1155 19.6461C77.4857 21.0146 78.2561 22.8713 78.2575 24.8079C78.2559 26.7443 77.4853 28.6007 76.1152 29.969C74.7451 31.3373 72.8876 32.1055 70.9513 32.1047V39.3543C78.9952 39.3543 85.5145 32.8434 85.5145 24.8089C85.5145 16.7745 78.9952 10.2615 70.9513 10.2615ZM136.148 10.2615H138.991C141.338 10.2615 142.846 11.9981 142.846 14.3779C142.846 16.7577 141.338 18.4827 138.991 18.4827H136.148V10.2615ZM138.933 17.5971C140.659 17.5971 141.718 16.3096 141.718 14.3663C141.718 12.423 140.659 11.146 138.933 11.146H137.207V17.5961L138.933 17.5971ZM143.87 10.2615H145.033V11.549H143.87V10.2615ZM143.928 12.5605H144.964V18.4817H143.928V12.5605ZM146.184 18.6894H147.243C147.427 19.3788 147.945 19.7125 148.854 19.7125C149.717 19.7125 150.501 19.2875 150.501 18.0683V17.2981C150.04 18.0452 149.35 18.3673 148.567 18.3673C147.14 18.3673 145.977 17.1029 145.977 15.3663C145.977 13.6413 147.14 12.4115 148.567 12.4115C149.35 12.4115 150.108 12.7787 150.501 13.4461V12.5605H151.536V18.0441C151.536 19.8951 150.213 20.5614 148.82 20.5614C147.335 20.5624 146.345 19.8605 146.185 18.6884L146.184 18.6894ZM148.784 17.5048C149.854 17.5048 150.556 16.6076 150.556 15.3663C150.556 14.1134 149.854 13.274 148.784 13.274C147.725 13.274 147.035 14.1134 147.035 15.3663C147.035 16.6087 147.725 17.5048 148.784 17.5048ZM152.824 10.2615H153.986V11.549H152.824V10.2615ZM152.882 12.5605H153.917V18.4817H152.882V12.5605ZM155.7 17.1018V13.4115H154.757V12.5605H155.435C155.596 12.5605 155.7 12.4577 155.7 12.3076V10.6067H156.724V12.5615H158.025V13.4125H156.724V16.9424C156.724 17.4481 156.861 17.6317 157.334 17.6317H158.174V18.4827H157.036C156.126 18.4838 155.701 18.0934 155.701 17.1039L155.7 17.1018ZM158.773 16.8836C158.773 15.5038 159.959 15.1932 160.925 15.0673L162.203 14.8952C162.676 14.8259 162.767 14.5625 162.767 14.2855C162.767 13.7105 162.376 13.2394 161.489 13.2394C160.602 13.2394 160.096 13.6539 160.005 14.3768H158.97C159.097 13.1922 160.051 12.4104 161.467 12.4104C163.043 12.4104 163.791 13.1922 163.791 14.5258V17.3998C163.791 17.5268 163.894 17.6296 164.033 17.6296H164.402V18.4806H163.7C163.136 18.4806 162.825 18.1816 162.825 17.7566V17.6066C162.307 18.3767 161.489 18.6296 160.753 18.6296C159.546 18.6317 158.775 17.9308 158.775 16.8846L158.773 16.8836ZM161.018 17.8038C162.076 17.8038 162.767 17.0221 162.767 15.8616V15.4471C162.572 15.5499 162.364 15.5846 162.169 15.6192L161.122 15.7797C160.223 15.9172 159.844 16.2393 159.844 16.8374C159.845 17.4471 160.305 17.8038 161.018 17.8038ZM165.321 10.2615H166.357V18.4817H165.321V10.2615ZM135.722 25.0293C135.722 22.4648 137.253 20.7639 139.44 20.7639C141.351 20.7639 142.547 21.9486 142.789 23.7187H141.672C141.464 22.6379 140.774 21.6726 139.44 21.6726C137.806 21.6726 136.828 23.1101 136.828 25.0188C136.828 26.9275 137.841 28.3755 139.44 28.3755C140.832 28.3755 141.592 27.3755 141.754 26.2937H142.87C142.536 28.2947 141.236 29.2831 139.441 29.2831C137.219 29.2842 135.723 27.5938 135.723 25.0303L135.722 25.0293ZM143.859 26.9264V23.213H144.894V26.8572C144.894 27.8918 145.482 28.4217 146.333 28.4217C147.173 28.4217 147.932 27.6861 147.932 26.6274V23.213H148.968V29.1341H147.932V28.2139C147.541 28.9264 146.804 29.2831 145.963 29.2831C144.733 29.2831 143.859 28.4668 143.859 26.9264Z" fill="white"/>
<path d="M150.27 23.2131H151.305V24.1333C151.673 23.4082 152.238 23.1438 152.928 23.1438H153.262V24.1207H152.848C151.904 24.1207 151.306 24.7073 151.306 25.9255V29.1332H150.271V23.2131H150.27Z" fill="white"/>
<path d="M154.137 23.2131H155.172V24.1333C155.541 23.4082 156.105 23.1438 156.796 23.1438H157.129V24.1207H156.715C155.772 24.1207 155.173 24.7073 155.173 25.9255V29.1332H154.138V23.2131H154.137Z" fill="white"/>
<path d="M157.427 26.1794C157.427 24.3977 158.521 23.063 160.258 23.063C161.732 23.063 163.02 23.8909 162.883 26.4428H158.498C158.567 27.5236 159.073 28.4553 160.258 28.4553C161.122 28.4553 161.558 28.0188 161.766 27.3746H162.813C162.526 28.5246 161.64 29.2832 160.258 29.2832C158.52 29.2832 157.426 27.9611 157.426 26.1784L157.427 26.1794ZM161.87 25.6621C161.801 24.4554 161.249 23.8919 160.259 23.8919C159.178 23.8919 158.649 24.6737 158.522 25.6621H161.87ZM163.86 23.213H164.895V24.1102C165.287 23.4554 166.035 23.063 166.897 23.063C168.186 23.063 169.084 23.8678 169.084 25.4428V29.1342H168.048V25.5005C168.048 24.4659 167.461 23.9255 166.587 23.9255C165.666 23.9255 164.895 24.6726 164.895 25.7198V29.1342H163.86V23.213ZM170.004 26.1794C170.004 24.4092 171.121 23.063 172.858 23.063C174.217 23.063 175.206 23.8909 175.402 25.2476H174.355C174.183 24.4197 173.607 23.914 172.847 23.914C171.616 23.914 171.075 24.9832 171.075 26.1679C171.075 27.3525 171.616 28.4322 172.847 28.4322C173.618 28.4322 174.135 28.0073 174.355 27.1899H175.39C175.172 28.4427 174.252 29.2822 172.847 29.2822C171.122 29.2832 170.004 27.9496 170.004 26.1794ZM177.197 30.2381C177.566 30.2381 177.738 30.1688 177.876 29.8131L178.175 29.0199L175.782 23.2141H176.897L178.681 27.7103L180.338 23.2141H181.42L178.761 30.1699C178.473 30.9285 178.036 31.0901 177.335 31.0901H176.172V30.2391H177.197V30.2381ZM135.723 35.6818C135.723 33.1174 137.288 31.4164 139.509 31.4164C141.43 31.4164 142.604 32.6011 142.846 34.3597H141.73C141.569 33.302 140.787 32.3251 139.509 32.3251C137.84 32.3251 136.827 33.7627 136.827 35.6714C136.827 37.58 137.862 39.0281 139.496 39.0281C140.659 39.0281 141.786 38.3607 141.924 36.4762H139.278V35.5916H142.938V39.7877H141.96V38.5003C141.442 39.3743 140.59 39.9378 139.29 39.9378C137.288 39.9367 135.723 38.2474 135.723 35.6829V35.6818ZM144.366 33.8645H145.401V34.7847C145.77 34.0607 146.334 33.7952 147.025 33.7952H147.358V34.7721H146.944C146.001 34.7721 145.402 35.3587 145.402 36.5769V39.7846H144.367V33.8645H144.366ZM147.657 36.8308C147.657 35.0607 148.716 33.7144 150.511 33.7144C152.307 33.7144 153.366 35.0596 153.366 36.8308C153.366 38.602 152.307 39.9347 150.511 39.9347C148.716 39.9347 147.657 38.601 147.657 36.8308ZM150.51 39.0837C151.799 39.0837 152.294 37.9683 152.294 36.8193C152.294 35.6577 151.799 34.5654 150.51 34.5654C149.209 34.5654 148.727 35.6577 148.727 36.8193C148.727 37.9693 149.209 39.0837 150.51 39.0837ZM154.285 37.579V33.8655H155.32V37.5097C155.32 38.5443 155.908 39.0742 156.759 39.0742C157.599 39.0742 158.358 38.3387 158.358 37.2799V33.8655H159.394V39.7867H158.358V38.8665C157.967 39.5789 157.23 39.9357 156.39 39.9357C155.16 39.9357 154.285 39.1193 154.285 37.579ZM160.695 33.8645H161.731V34.7616C161.941 34.4301 162.234 34.1593 162.581 33.9758C162.928 33.7923 163.317 33.7026 163.71 33.7155C165.148 33.7155 166.299 34.9799 166.299 36.8424C166.299 38.7049 165.148 39.9347 163.71 39.9347C162.882 39.9347 162.156 39.5779 161.731 38.9V41.7394H160.695V33.8645ZM163.457 39.0732C164.585 39.0732 165.229 38.1414 165.229 36.8434C165.229 35.5454 164.584 34.579 163.457 34.579C162.34 34.579 161.684 35.5444 161.684 36.8329C161.684 38.1215 162.34 39.0732 163.457 39.0732Z" fill="white"/>
</g>
<defs>
<clipPath id="clip0_1449_1434">
<rect width="121" height="40" fill="white" transform="translate(60.75 6)"/>
</clipPath>
</defs>
</svg>
